data/ysabeau-sc.svg

<svg width="71.918" height="18.802" viewBox="0 0 71.918 18.802" xmlns="http://www.w3.org/2000/svg"><path transform="translate(0 14.756) scale(.014 -.014)" d="m293 248-266 410h91l224-366zm-15-248v293h75v-293zm62 251-41 41 227 366h79z"/><path transform="translate(8.848 14.756) scale(.014 -.014)" d="m337 118q0 28-19.5 45.5t-50.5 30-65 24-64.5 27-50 39.5-19.5 62q0 55 44.5 90.5t120.5 35.5q49 0 90.5-13t66.5-32l-29-52q-27 23-62.5 35t-70.5 12q-48 0-71.5-22t-23.5-48q0-25 19.5-42t50-29.5 64.5-25 65-29.5 50.5-42 19.5-63q0-56-48-91.5t-133-35.5q-58 0-102 16.5t-74 42.5l29 53q32-28 72.5-44.5t85.5-16.5q52 0 78.5 21t26.5 52z"/><path transform="translate(15.106 14.756) scale(.014 -.014)" d="m29 0 198 466h80l199-466h-72l-179 438h20l-174-438zm100 163 17 50h228l25-50z"/><path transform="translate(22.596 14.756) scale(.014 -.014)" d="m91 0v466h189q68 0 108-30.5t40-82.5q0-36-19.5-65.5t-55-47-81.5-17.5l11 41q57 0 97.5-15.5t62.5-44.5 22-70q0-40-20.5-70.5t-59.5-47-95-16.5zm64 53h137q53 0 80 21.5t27 59.5q0 40-31.5 61.5t-99.5 21.5h-130v52h142q41 0 63.5 19.5t22.5 53.5q0 30-22.5 51t-72.5 21h-116z"/><path transform="translate(29.736 14.756) scale(.014 -.014)" d="m91 0v466h68v-466zm23 0v54h325v-54zm0 207v53h265v-53zm0 206v53h305v-53z"/><path transform="translate(36.47 14.756) scale(.014 -.014)" d="m29 0 198 466h80l199-466h-72l-179 438h20l-174-438zm100 163 17 50h228l25-50z"/><path transform="translate(43.96 14.756) scale(.014 -.014)" d="m284-6q-63 0-109 25t-71.5 70.5-25.5 106.5v270h69v-260q0-74 40-117.5t106-43.5q64 0 100 41.5t36 113.5v266h70v-255q0-65-27-114t-75-76-113-27z"/><path transform="translate(55.468 14.756) scale(.014 -.014)" d="m397 159q0 36-17 61t-45.5 43.5-62.5 34-68 32.5-62.5 38-45.5 50.5-17 71.5q0 55 26 94.5t72 61 105 21.5q42 0 86-10.5t78-31.5l-27-66q-30 25-70.5 39t-79.5 14q-41 0-68.5-15t-40.5-38.5-13-51.5q0-31 17.5-53.5t46-39.5 62.5-32.5 68-33 62.5-40.5 46-55 17.5-76q0-59-28-101t-76.5-64-110.5-22-115.5 18.5-88.5 49.5l37 61q36-34 84-53t97-19q62 0 96.5 30.5t34.5 81.5z"/><path transform="translate(62.776 14.756) scale(.014 -.014)" d="m395-9q-100 0-176.5 41.5t-119 116-42.5 173.5q0 78 26 141.5t73.5 109 111 70 138.5 24.5q55 0 106-14t96-41l-35-65q-43 32-87 48.5t-96 16.5q-77 0-134-35t-88.5-97.5-31.5-145.5q0-87 35.5-152t95.5-101 134-36q56 0 102 19t83 52l32-58q-50-33-105-50t-118-17z"/></svg>

<?xml version="1.0" encoding="utf-8" ?>
<svg baseProfile="tiny" height="100%" version="1.2" width="100%" xmlns="http://www.w3.org/2000/svg" xmlns:ev="http://www.w3.org/2001/xml-events" xmlns:xlink="http://www.w3.org/1999/xlink"><defs /><g><path d="M293 248 27 658H118L342 292ZM278 0V293H353V0ZM340 251 299 292 526 658H605Z" transform="translate(0.0, 72) scale(0.072, -0.072)" /><path d="M337 118Q337 146 317.5 163.5Q298 181 267.0 193.5Q236 206 202.0 217.5Q168 229 137.5 244.5Q107 260 87.5 284.0Q68 308 68 346Q68 401 112.5 436.5Q157 472 233 472Q282 472 323.5 459.0Q365 446 390 427L361 375Q334 398 298.5 410.0Q263 422 228 422Q180 422 156.5 400.0Q133 378 133 352Q133 327 152.5 310.0Q172 293 202.5 280.5Q233 268 267.0 255.5Q301 243 332.0 226.0Q363 209 382.5 184.0Q402 159 402 121Q402 65 354.0 29.5Q306 -6 221 -6Q163 -6 119.0 10.5Q75 27 45 53L74 106Q106 78 146.5 61.5Q187 45 232 45Q284 45 310.5 66.0Q337 87 337 118Z" transform="translate(45.504, 72) scale(0.072, -0.072)" /><path d="M29 0 227 466H307L506 0H434L255 438H275L101 0ZM129 163 146 213H374L399 163Z" transform="translate(77.68799999999999, 72) scale(0.072, -0.072)" /><path d="M91 0V466H280Q348 466 388.0 435.5Q428 405 428 353Q428 317 408.5 287.5Q389 258 353.5 240.5Q318 223 272 223L283 264Q340 264 380.5 248.5Q421 233 443.0 204.0Q465 175 465 134Q465 94 444.5 63.5Q424 33 385.0 16.5Q346 0 290 0ZM155 53H292Q345 53 372.0 74.5Q399 96 399 134Q399 174 367.5 195.5Q336 217 268 217H138V269H280Q321 269 343.5 288.5Q366 308 366 342Q366 372 343.5 393.0Q321 414 271 414H155Z" transform="translate(116.20799999999998, 72) scale(0.072, -0.072)" /><path d="M91 0V466H159V0ZM114 0V54H439V0ZM114 207V260H379V207ZM114 413V466H419V413Z" transform="translate(152.928, 72) scale(0.072, -0.072)" /><path d="M29 0 227 466H307L506 0H434L255 438H275L101 0ZM129 163 146 213H374L399 163Z" transform="translate(187.56, 72) scale(0.072, -0.072)" /><path d="M284 -6Q221 -6 175.0 19.0Q129 44 103.5 89.5Q78 135 78 196V466H147V206Q147 132 187.0 88.5Q227 45 293 45Q357 45 393.0 86.5Q429 128 429 200V466H499V211Q499 146 472.0 97.0Q445 48 397.0 21.0Q349 -6 284 -6Z" transform="translate(226.07999999999998, 72) scale(0.072, -0.072)" /><path d="M397 159Q397 195 380.0 220.0Q363 245 334.5 263.5Q306 282 272.0 297.5Q238 313 204.0 330.0Q170 347 141.5 368.0Q113 389 96.0 418.5Q79 448 79 490Q79 545 105.0 584.5Q131 624 177.0 645.5Q223 667 282 667Q324 667 368.0 656.5Q412 646 446 625L419 559Q389 584 348.5 598.0Q308 612 269 612Q228 612 200.5 597.0Q173 582 160.0 558.5Q147 535 147 507Q147 476 164.5 453.5Q182 431 210.5 414.0Q239 397 273.0 381.5Q307 366 341.0 348.5Q375 331 403.5 308.0Q432 285 449.5 253.0Q467 221 467 177Q467 118 439.0 76.0Q411 34 362.5 12.0Q314 -10 252 -10Q190 -10 136.5 8.5Q83 27 48 58L85 119Q121 85 169.0 66.0Q217 47 266 47Q328 47 362.5 77.5Q397 108 397 159Z" transform="translate(285.26399999999995, 72) scale(0.072, -0.072)" /><path d="M395 -9Q295 -9 218.5 32.5Q142 74 99.5 148.5Q57 223 57 322Q57 400 83.0 463.5Q109 527 156.5 572.5Q204 618 267.5 642.5Q331 667 406 667Q461 667 512.0 653.0Q563 639 608 612L573 547Q530 579 486.0 595.5Q442 612 390 612Q313 612 256.0 577.0Q199 542 167.5 479.5Q136 417 136 334Q136 247 171.5 182.0Q207 117 267.0 81.0Q327 45 401 45Q457 45 503.0 64.0Q549 83 586 116L618 58Q568 25 513.0 8.0Q458 -9 395 -9Z" transform="translate(322.84799999999996, 72) scale(0.072, -0.072)" /></g></svg>
